X:1
T: Sir Ronald McDonald's Strathspey
C:
R:Strathspey
Q: 128
K:Gm
M:4/4
L:1/16
|:B2|GGG2 d3c d4-d3g|f3d c3A F3G AF3|GGG2 d3c d4-d3g|f3d c3A GGG2 G2B2|
GGG2 d3c d4-d3g|f3d c3A F3G AF3|GGG2 d3c d4-d3g|f3d c3A GGG2 G2^f2|
g3^f g3a d3^f g3a|=fd3 c3A F2c2 A2f2|g3^f g3a d3^f g3a|=fd3 c3A GGG2 G2^f2|
g3^f g3a d3^f g3a|=fd3 c3A F2c2 A2f2|ga3 fg3 df3 cf3|A3f c3A GGG2 G2:|
